X:30
T:Greencastle
Z: id:dc-hornpipe-28
M:C|
L:1/8
K:G Major
dc|BGDG BGDG|g2fg e2dc|BGDG BGDG|c2Bc A2dc|!
BGDG BGDG|g2fg e2dc|Bdfe dcAF|G2GF G2:|!
ga|bagf efga|bagf e2fg|agfe defg|agfe d2ef|!
gfgd e2d2|cBAB cdef|gfgd ecAF|G2GF G2:|!

